src/main/resources/cards/fronts/diamonds_6.svg

<?xml version="1.0" encoding="UTF-8" standalone="no"?>
<!-- Created with Inkscape (http://www.inkscape.org/) -->

<svg
   xmlns:dc="http://purl.org/dc/elements/1.1/"
   xmlns:cc="http://creativecommons.org/ns#"
   xmlns:rdf="http://www.w3.org/1999/02/22-rdf-syntax-ns#"
   xmlns:svg="http://www.w3.org/2000/svg"
   xmlns="http://www.w3.org/2000/svg"
   xmlns:sodipodi="http://sodipodi.sourceforge.net/DTD/sodipodi-0.dtd"
   xmlns:inkscape="http://www.inkscape.org/namespaces/inkscape"
   width="234"
   height="333.00003"
   id="svg2"
   version="1.1"
   inkscape:version="0.92.4 (5da689c313, 2019-01-14)"
   sodipodi:docname="diamonds_6.svg"
   inkscape:export-filename="C:\Users\fowle\OneDrive\Projects\Playing-Cards\fronts\png-096-dpi\diamonds_6.png"
   inkscape:export-xdpi="96"
   inkscape:export-ydpi="96">
  <title
     id="title889">Six of Diamonds Playing Card</title>
  <defs
     id="defs4" />
  <sodipodi:namedview
     id="base"
     pagecolor="#ffffff"
     bordercolor="#666666"
     borderopacity="1.0"
     inkscape:pageopacity="0.0"
     inkscape:pageshadow="2"
     inkscape:zoom="2.1916676"
     inkscape:cx="93.336589"
     inkscape:cy="166.48677"
     inkscape:document-units="px"
     inkscape:current-layer="layer1"
     showgrid="false"
     inkscape:showpageshadow="false"
     showguides="true"
     inkscape:guide-bbox="true"
     inkscape:snap-global="true"
     inkscape:window-width="1456"
     inkscape:window-height="976"
     inkscape:window-x="442"
     inkscape:window-y="18"
     inkscape:window-maximized="0"
     showborder="false"
     fit-margin-top="0"
     fit-margin-left="0"
     fit-margin-right="0"
     fit-margin-bottom="0">
    <inkscape:grid
       type="xygrid"
       id="grid3767"
       empspacing="5"
       visible="true"
       enabled="true"
       snapvisiblegridlinesonly="true"
       originx="0"
       originy="5.1666068e-06" />
  </sodipodi:namedview>
  <metadata
     id="metadata7">
    <rdf:RDF>
      <cc:Work
         rdf:about="">
        <dc:format>image/svg+xml</dc:format>
        <dc:type
           rdf:resource="http://purl.org/dc/dcmitype/StillImage" />
        <dc:title>Six of Diamonds Playing Card</dc:title>
        <cc:license
           rdf:resource="http://creativecommons.org/publicdomain/zero/1.0/" />
        <dc:date>2020-05-05</dc:date>
        <dc:creator>
          <cc:Agent>
            <dc:title>Daniel S. Fowler</dc:title>
          </cc:Agent>
        </dc:creator>
        <dc:rights>
          <cc:Agent>
            <dc:title>Public Domain</dc:title>
          </cc:Agent>
        </dc:rights>
        <dc:publisher>
          <cc:Agent>
            <dc:title>https://tekeye.uk</dc:title>
          </cc:Agent>
        </dc:publisher>
        <dc:language>en-GB</dc:language>
        <dc:subject>
          <rdf:Bag>
            <rdf:li>six; diamonds; playing; card; white; red;</rdf:li>
          </rdf:Bag>
        </dc:subject>
        <dc:description>A six of diamonds playing card.</dc:description>
      </cc:Work>
      <cc:License
         rdf:about="http://creativecommons.org/publicdomain/zero/1.0/">
        <cc:permits
           rdf:resource="http://creativecommons.org/ns#Reproduction" />
        <cc:permits
           rdf:resource="http://creativecommons.org/ns#Distribution" />
        <cc:permits
           rdf:resource="http://creativecommons.org/ns#DerivativeWorks" />
      </cc:License>
    </rdf:RDF>
  </metadata>
  <g
     inkscape:label="Layer 1"
     inkscape:groupmode="layer"
     id="layer1"
     transform="translate(0,-719.36216)">
    <g
       id="g919">
      <rect
         rx="8.9191856"
         ry="8.9457436"
         y="719.74011"
         x="0.37795275"
         height="332.24411"
         width="233.24409"
         id="rect4266"
         style="fill:#ffffff;fill-opacity:1;stroke:#808080;stroke-width:0.75590551;stroke-linecap:butt;stroke-linejoin:miter;stroke-miterlimit:4;stroke-dasharray:none;stroke-opacity:1" />
      <g
         transform="matrix(0.07348588,0,0,0.07370838,-248.01731,933.60062)"
         id="g4233"
         style="fill:none;stroke:#000000;stroke-width:3.18132639;stroke-opacity:1" />
      <g
         clip-path="none"
         style="fill:none;stroke:#000000;stroke-width:3.18132639;stroke-opacity:1"
         id="g4211"
         transform="matrix(0.07348588,0,0,0.07370838,-248.01728,933.60062)" />
      <g
         transform="matrix(0.07348588,0,0,0.07370838,-248.01731,933.60062)"
         id="g4227"
         style="fill:none;stroke:#000000;stroke-width:3.18132639;stroke-opacity:1" />
      <path
         inkscape:export-ydpi="95.969437"
         inkscape:export-xdpi="95.969437"
         inkscape:export-filename="D:\DAN\Documents\Projects\Playing Cards\test.png"
         inkscape:connector-curvature="0"
         id="path4884-1"
         d="M 58.629672,814.07624 86.87338,785.73971 58.629672,757.40317 30.385965,785.73971 Z"
         style="fill:#ff0000;fill-opacity:1;stroke:none;stroke-width:1" />
      <path
         inkscape:export-ydpi="95.969437"
         inkscape:export-xdpi="95.969437"
         inkscape:export-filename="D:\DAN\Documents\Projects\Playing Cards\test.png"
         inkscape:connector-curvature="0"
         id="path4884-1-4"
         d="M 58.629676,1014.3212 86.87338,985.98462 58.629676,957.64809 30.385965,985.98462 Z"
         style="fill:#ff0000;fill-opacity:1;stroke:none;stroke-width:1" />
      <path
         inkscape:export-ydpi="95.969437"
         inkscape:export-xdpi="95.969437"
         inkscape:export-filename="D:\DAN\Documents\Projects\Playing Cards\test.png"
         inkscape:connector-curvature="0"
         id="path4884-1-7"
         d="M 58.629672,914.1987 86.87338,885.86217 58.629672,857.52563 30.385965,885.86217 Z"
         style="fill:#ff0000;fill-opacity:1;stroke:none;stroke-width:1" />
      <path
         inkscape:export-ydpi="95.969437"
         inkscape:export-xdpi="95.969437"
         inkscape:export-filename="D:\DAN\Documents\Projects\Playing Cards\test.png"
         inkscape:connector-curvature="0"
         id="path4884-1-40"
         d="M 175.37033,814.07623 203.61404,785.7397 175.37033,757.40316 147.12662,785.7397 Z"
         style="fill:#ff0000;fill-opacity:1;stroke:none;stroke-width:1" />
      <path
         inkscape:export-ydpi="95.969437"
         inkscape:export-xdpi="95.969437"
         inkscape:export-filename="D:\DAN\Documents\Projects\Playing Cards\test.png"
         inkscape:connector-curvature="0"
         id="path4884-1-4-9"
         d="m 175.37033,1014.3212 28.24371,-28.33659 -28.24371,-28.33654 -28.24371,28.33654 z"
         style="fill:#ff0000;fill-opacity:1;stroke:none;stroke-width:1" />
      <path
         inkscape:export-ydpi="95.969437"
         inkscape:export-xdpi="95.969437"
         inkscape:export-filename="D:\DAN\Documents\Projects\Playing Cards\test.png"
         inkscape:connector-curvature="0"
         id="path4884-1-7-8"
         d="m 175.37033,914.1987 28.24371,-28.33653 -28.24371,-28.33654 -28.24371,28.33654 z"
         style="fill:#ff0000;fill-opacity:1;stroke:none;stroke-width:1" />
      <path
         inkscape:connector-curvature="0"
         id="path4884-1-4-5-3"
         d="m 17.205569,780.7021 9.414569,-9.44551 -9.414569,-9.44552 -9.4145688,9.44552 z"
         style="fill:#ff0000;fill-opacity:1;stroke:none;stroke-width:1" />
      <path
         inkscape:connector-curvature="0"
         id="path4884-1-4-5-3-5"
         d="m 216.79443,991.02224 9.41457,9.44556 -9.41457,9.4455 -9.41457,-9.4455 z"
         style="fill:#ff0000;fill-opacity:1;stroke:none;stroke-width:1" />
      <g
         id="text3755-0"
         style="fill:#ff0000;font-style:normal;font-variant:normal;font-weight:bold;font-stretch:normal;font-size:3.77201176px;line-height:0%;font-family:'Levenim MT';-inkscape-font-specification:'Sans Bold';letter-spacing:0px;word-spacing:0px;fill:#ff0000;fill-opacity:1;stroke:none;stroke-width:0.99999994"
         transform="scale(0.99029285,1.0098023)"
         aria-label="6">
        <path
           id="path897"
           style="font-size:39.17512512px;line-height:1.25;stroke-width:0.99999994"
           d="m 26.881078,738.99851 q 0,4.24652 -2.467574,6.71409 -2.448446,2.46758 -6.694968,2.46758 -9.8511667,0 -9.8511667,-13.61948 0,-6.00634 2.1232612,-9.7364 2.6397305,-4.7056 8.1869895,-4.7056 3.213584,0 5.336845,1.31986 2.544088,1.56854 2.544088,4.59084 0,0.6695 -0.937296,0.6695 h -2.831014 q -0.554726,0 -0.937296,-0.63124 -0.554726,-0.9373 -0.87991,-1.2051 -0.784268,-0.63124 -2.295417,-0.63124 -2.544088,0 -3.959596,2.37193 -1.109451,1.91285 -1.243351,4.70561 2.238032,-1.77895 5.355974,-1.77895 3.959596,0 6.312398,2.79276 2.238033,2.63973 2.238033,6.67584 z m -4.992534,-0.11477 q 0,-2.18065 -1.090323,-3.59616 -1.205094,-1.56853 -3.328355,-1.56853 -2.104133,0 -3.290099,1.56853 -1.071194,1.41551 -1.071194,3.59616 0,2.085 1.12858,3.53876 1.224223,1.58767 3.251841,1.58767 2.065876,0 3.290099,-1.56854 1.109451,-1.43463 1.109451,-3.55789 z" />
      </g>
      <g
         id="text3755-2-2"
         style="fill:#ff0000;font-style:normal;font-variant:normal;font-weight:bold;font-stretch:normal;font-size:3.77201176px;line-height:0%;font-family:'Levenim MT';-inkscape-font-specification:'Sans Bold';letter-spacing:0px;word-spacing:0px;fill:#ff0000;fill-opacity:1;stroke:none;stroke-width:0.99999994"
         transform="scale(-0.99029285,-1.0098023)"
         aria-label="6">
        <path
           id="path900"
           style="font-size:39.17512512px;line-height:1.25;stroke-width:0.99999994"
           d="m -209.41268,-1015.5274 q 0,4.2466 -2.46758,6.7141 -2.44844,2.4676 -6.69497,2.4676 -9.85116,0 -9.85116,-13.6195 0,-6.0063 2.12326,-9.7364 2.63973,-4.7056 8.18699,-4.7056 3.21358,0 5.33684,1.3199 2.54409,1.5685 2.54409,4.5908 0,0.6695 -0.93729,0.6695 h -2.83102 q -0.55473,0 -0.9373,-0.6312 -0.55472,-0.9373 -0.87991,-1.2051 -0.78426,-0.6313 -2.29541,-0.6313 -2.54409,0 -3.9596,2.372 -1.10945,1.9128 -1.24335,4.7056 2.23803,-1.779 5.35598,-1.779 3.95959,0 6.31239,2.7928 2.23804,2.6397 2.23804,6.6758 z m -4.99254,-0.1147 q 0,-2.1807 -1.09032,-3.5962 -1.2051,-1.5685 -3.32836,-1.5685 -2.10413,0 -3.29009,1.5685 -1.0712,1.4155 -1.0712,3.5962 0,2.085 1.12858,3.5387 1.22422,1.5877 3.25184,1.5877 2.06588,0 3.2901,-1.5685 1.10945,-1.4347 1.10945,-3.5579 z" />
      </g>
    </g>
  </g>
</svg>

<svg width="234" height="333.00003" xmlns="http://www.w3.org/2000/svg">
    <g id="layer1" transform="matrix(1 0 0 1 0 -719.3622)">
        <g id="g919">
            <path id="rect4266" fill="#ffffff" stroke="#808080" stroke-width="0.7559055" d="M 9.297138 719.7401 L 224.70288 719.7401 C 229.6288 719.7401 233.62206 723.74524 233.62206 728.68585 L 233.62206 1043.0385 C 233.62207 1045.411 232.68237 1047.6864 231.0097 1049.3641 C 229.33702 1051.0417 227.06839 1051.9843 224.70288 1051.9843 L 9.297138 1051.9843 C 6.9316134 1051.9843 4.662975 1051.0417 2.9903018 1049.3641 C 1.3176281 1047.6864 0.3779376 1045.411 0.37795275 1043.0385 L 0.37795275 728.68585 C 0.37795484 723.74524 4.3712096 719.7401 9.297138 719.7401 Z"/>
            <g id="g4233" transform="matrix(0.07348588 0 0 0.07370838 -248.0173 933.60065)"/>
            <g id="g4211" transform="matrix(0.07348588 0 0 0.07370838 -248.01726 933.60065)"/>
            <g id="g4227" transform="matrix(0.07348588 0 0 0.07370838 -248.0173 933.60065)"/>
            <path id="path4884-1" fill="#ff0000" stroke="none" d="M 58.629673 814.07623 L 86.87338 785.7397 L 58.629673 757.40326 L 30.385965 785.7397 Z"/>
            <path id="path4884-1-4" fill="#ff0000" stroke="none" d="M 58.629677 1014.3212 L 86.87338 985.9846 L 58.629677 957.6481 L 30.385965 985.9846 Z"/>
            <path id="path4884-1-7" fill="#ff0000" stroke="none" d="M 58.629673 914.19867 L 86.87338 885.8622 L 58.629673 857.52563 L 30.385965 885.8622 Z"/>
            <path id="path4884-1-40" fill="#ff0000" stroke="none" d="M 175.37032 814.07623 L 203.61404 785.7397 L 175.37032 757.40314 L 147.12662 785.7397 Z"/>
            <path id="path4884-1-4-9" fill="#ff0000" stroke="none" d="M 175.37032 1014.3212 L 203.61404 985.9846 L 175.37032 957.6481 L 147.12662 985.9846 Z"/>
            <path id="path4884-1-7-8" fill="#ff0000" stroke="none" d="M 175.37032 914.19867 L 203.61404 885.8622 L 175.37032 857.52563 L 147.12662 885.8622 Z"/>
            <path id="path4884-1-4-5-3" fill="#ff0000" stroke="none" d="M 17.205568 780.7021 L 26.620136 771.2566 L 17.205568 761.8111 L 7.7910004 771.2566 Z"/>
            <path id="path4884-1-4-5-3-5" fill="#ff0000" stroke="none" d="M 216.79443 991.0222 L 226.209 1000.4677 L 216.79443 1009.9134 L 207.37987 1000.4677 Z"/>
            <g id="text3755-0" transform="matrix(0.9902929 0 0 1.0098023 0 0)">
                <path id="path897" fill="#ff0000" stroke="none" d="M 26.881077 738.99854 Q 26.881077 743.2451 24.413504 745.7126 Q 21.96506 748.1802 17.718536 748.1802 Q 7.867369 748.1802 7.867369 734.5607 Q 7.867369 728.5544 9.99063 724.8243 Q 12.630361 720.1187 18.17762 720.1187 Q 21.391205 720.1187 23.514465 721.43854 Q 26.058556 723.0071 26.058556 726.0294 Q 26.058556 726.6989 25.121258 726.6989 L 22.290243 726.6989 Q 21.73552 726.6989 21.352947 726.0677 Q 20.798222 725.1304 20.473038 724.86255 Q 19.688768 724.23126 18.17762 724.23126 Q 15.633533 724.23126 14.218023 726.6033 Q 13.108574 728.5161 12.974672 731.30884 Q 15.212706 729.52985 18.330647 729.52985 Q 22.290243 729.52985 24.643047 732.3227 Q 26.881077 734.9624 26.881077 738.99854 Z M 21.888546 738.8837 Q 21.888546 736.70306 20.798222 735.2876 Q 19.593126 733.719 17.469866 733.719 Q 15.365733 733.719 14.179767 735.2876 Q 13.108574 736.70306 13.108574 738.8837 Q 13.108574 740.96875 14.237153 742.4224 Q 15.461376 744.0102 17.488995 744.0102 Q 19.55487 744.0102 20.779093 742.4416 Q 21.888546 741.007 21.888546 738.8837 Z"/>
            </g>
            <g id="text3755-2-2" transform="matrix(-0.9902929 0 0 -1.0098023 0 0)">
                <path id="path900" fill="#ff0000" stroke="none" d="M -209.41267 -1015.5274 Q -209.41267 -1011.2809 -211.88026 -1008.81323 Q -214.3287 -1006.34564 -218.57521 -1006.34564 Q -228.42638 -1006.34564 -228.42638 -1019.9652 Q -228.42638 -1025.9716 -226.30315 -1029.7017 Q -223.6634 -1034.4072 -218.11613 -1034.4072 Q -214.90256 -1034.4072 -212.7793 -1033.0873 Q -210.23521 -1031.5188 -210.23521 -1028.4965 Q -210.23521 -1027.827 -211.1725 -1027.827 L -214.00352 -1027.827 Q -214.55824 -1027.827 -214.94084 -1028.4583 Q -215.49553 -1029.3955 -215.82072 -1029.6633 Q -216.605 -1030.2946 -218.11613 -1030.2946 Q -220.66022 -1030.2946 -222.07574 -1027.9226 Q -223.1852 -1026.0098 -223.3191 -1023.217 Q -221.08104 -1024.996 -217.9631 -1024.996 Q -214.00352 -1024.996 -211.65073 -1022.2032 Q -209.41267 -1019.5635 -209.41267 -1015.5274 Z M -214.40523 -1015.6421 Q -214.40523 -1017.8228 -215.49553 -1019.23834 Q -216.70064 -1020.8068 -218.8239 -1020.8068 Q -220.92802 -1020.8068 -222.11398 -1019.23834 Q -223.1852 -1017.8228 -223.1852 -1015.6421 Q -223.1852 -1013.5572 -222.05661 -1012.1034 Q -220.8324 -1010.51575 -218.80476 -1010.51575 Q -216.73889 -1010.51575 -215.51466 -1012.0842 Q -214.40523 -1013.5189 -214.40523 -1015.6421 Z"/>
            </g>
        </g>
    </g>
</svg>
